logo/falcor.svg

<svg viewBox="0 0 256 299" xmlns="http://www.w3.org/2000/svg"><g transform="translate(7 191)"><path fill="#4CAD31" d="M181.222.8v.01l-60.15 35.725 -.08-.05v-.01L60.77.8 .55 36.47l120.44 71.354L241.43 36.47 181.2.79"/><path fill="#64B32C" d="M121 36.48l60.21 35.67 -60.22 35.684V36.47"/><path fill="#8BBE2D" d="M60.782.81v71.344L.55 36.48 60.772.81"/><path fill="#76B828" d="M121 36.48v71.35L60.78 72.14l60.21-35.67"/><path fill="#5DB12E" d="M181.22 72.15V.8l-60.23 35.67 60.22 35.67"/><path fill="#82BB24" d="M60.782 72.15l60.29-35.62L60.77.8v71.344"/></g><g transform="translate(135 0)"><path fill="#751F82" d="M121 71.354l-.01-.01v-.01l-.01 0L.54-.02v71.34l60.22 35.68v71.35l60.218 35.67V71.32l0-.01"/><path fill="#934C98" d="M60.77 107.02l60.21 35.67V71.33l-60.22 35.68"/><path fill="#8A398D" d="M60.77 107.02l-.01-71.36 60.22 35.68 -60.23 35.67"/><path fill="#B987BB" d="M60.77 178.38l60.21 35.67v-71.36l-60.22 35.68"/><path fill="#A466A7" d="M120.99 142.702l-60.22 35.68v-71.36l60.21 35.67"/><path fill="#7B1F82" d="M60.771 35.67L.55 71.343l60.22 35.68 -.01-71.36"/></g><path fill="#0062AE" d="M.008 71.35l-.004-.01v0l-.004 0 .004 0v142.7l60.21-35.67v-71.36l60.22-35.69V-.03L-.01 71.32"/><path fill="#007EC6" d="M60.22 107.02L0 142.704v-71.37l60.218 35.68"/><path fill="#26B2E7" d="M120.44 71.34L60.21 35.66 120.43-.02v71.34"/><path fill="#008BD0" d="M60.22 107.02L-.01 71.34l60.22-35.68 -.01 71.35"/><path fill="#0071BB" d="M0 142.712l60.218 35.67v-71.36L0 142.702"/><path fill="#009DDC" d="M60.22 35.67l-.01 71.35 60.22-35.69L60.2 35.657"/></svg>

<?xml version="1.0" encoding="UTF-8" standalone="no"?>
<svg width="256px" height="299px" viewBox="0 0 256 299" version="1.1" xmlns="http://www.w3.org/2000/svg" xmlns:xlink="http://www.w3.org/1999/xlink" preserveAspectRatio="xMidYMid">
	<g>
		<g transform="translate(7.000000, 191.000000)">
			<path d="M181.222,0.804 L181.222,0.814 L121.078,36.539 L121,36.492 L121,36.488 L60.782,0.814 L0.56,36.488 L121,107.842 L241.444,36.488 L181.222,0.804" fill="#4CAD31"></path>
			<path d="M121,36.488 L181.218,72.158 L121,107.842 L121,36.488" fill="#64B32C"></path>
			<path d="M60.782,0.814 L60.782,72.158 L0.56,36.488 L60.782,0.814" fill="#8BBE2D"></path>
			<path d="M121,36.488 L121,107.842 L60.782,72.158 L121,36.488" fill="#76B828"></path>
			<path d="M181.222,72.158 L181.222,0.814 L121,36.488 L181.222,72.158" fill="#5DB12E"></path>
			<path d="M60.782,72.158 L121.078,36.539 L60.782,0.814 L60.782,72.158" fill="#82BB24"></path>
		</g>
		<g transform="translate(135.000000, 0.000000)">
			<path d="M121,71.354 L120.993,71.35 L120.993,71.347 L120.99,71.349 L0.553,0 L0.553,71.347 L60.775,107.028 L60.775,178.386 L120.993,214.056 L120.993,71.359 L121,71.354" fill="#751F82"></path>
			<path d="M60.775,107.028 L120.993,142.702 L120.993,71.347 L60.775,107.028" fill="#934C98"></path>
			<path d="M60.775,107.028 L60.771,35.674 L121,71.354 L60.775,107.028" fill="#8A398D"></path>
			<path d="M60.775,178.386 L120.993,214.056 L120.993,142.702 L60.775,178.386" fill="#B987BB"></path>
			<path d="M120.993,142.702 L60.775,178.386 L60.775,107.028 L120.993,142.702" fill="#A466A7"></path>
			<path d="M60.771,35.674 L0.553,71.347 L60.775,107.028 L60.771,35.674" fill="#7B1F82"></path>
		</g>
		<g>
			<path d="M0.008,71.35 L0.004,71.347 L0.004,71.352 L0,71.354 L0.004,71.356 L0.004,214.056 L60.222,178.386 L60.222,107.028 L120.447,71.347 L120.447,0 L0.008,71.35" fill="#0062AE"></path>
			<path d="M60.222,107.028 L0.004,142.712 L0.004,71.347 L60.222,107.028" fill="#007EC6"></path>
			<path d="M120.447,71.347 L60.225,35.674 L120.447,0 L120.447,71.347" fill="#26B2E7"></path>
			<path d="M60.222,107.028 L0,71.354 L60.225,35.674 L60.222,107.028" fill="#008BD0"></path>
			<path d="M0.004,142.712 L60.222,178.386 L60.222,107.028 L0.004,142.712" fill="#0071BB"></path>
			<path d="M60.225,35.674 L60.222,107.028 L120.447,71.347 L60.225,35.674" fill="#009DDC"></path>
		</g>
	</g>
</svg>
